lib/healthicons/icons/outline/medications/medicines.svg

<svg fill="none" height="48" viewBox="0 0 48 48" width="48" xmlns="http://www.w3.org/2000/svg"><g clip-rule="evenodd" fill="#333" fill-rule="evenodd"><path d="m14.8106 10.013c-.0015.0018-.0045.0056-.0085.0122l-6.7921 11.1152c.00052.0004.00104.0007.00156.0011.00195.0013.00503.003.01036.0048.00503.0018.01635.005.03632.0064l11.86636.8467c.02.0015.0322-.0001.0384-.0013.0066-.0012.0112-.0029.0149-.0047.0048-.0022.0096-.0054.0139-.0093l-5.0557-11.9602c-.0019-.0045-.0035-.0075-.0045-.0094-.0059-.0034-.0239-.0119-.0537-.0141-.033-.00231-.0551.005-.0623.0085l-.0024.0014c-.0001 0-.0011.0009-.0026.0027zm1.9676-.76784c-.6475-1.53181-2.8129-1.68632-3.6827-.26278l-6.80269 11.13242c-.78472 1.2842.09266 2.9237 1.62309 3.0329l11.8664.8467c1.5304.1092 2.6438-1.3882 2.0597-2.7701z"/><path d="m34 20c3.3137 0 6-2.6863 6-6s-2.6863-6-6-6-6 2.6863-6 6 2.6863 6 6 6zm0 2c4.4183 0 8-3.5817 8-8 0-4.41828-3.5817-8-8-8s-8 3.58172-8 8c0 4.4183 3.5817 8 8 8z"/><path d="m38.2823 14.9846c-.1237.5383-.6604.8743-1.1986.7505l-6.6157-1.5209c-.5382-.1237-.8742-.6604-.7505-1.1986.1238-.5383.6604-.8743 1.1986-.7505l6.6157 1.5209c.5382.1237.8743.6604.7505 1.1986z"/><path d="m31.1587 27.2961-10.8757 5.0714c-2.0022.9337-2.8684 3.3136-1.9348 5.3157.9337 2.0022 3.3136 2.8684 5.3158 1.9348l10.8756-5.0714c2.0022-.9336 2.8684-3.3136 1.9348-5.3157-.9336-2.0022-3.3135-2.8684-5.3157-1.9348zm-11.7209 3.2588c-3.0033 1.4005-4.3026 4.9703-2.9022 7.9736 1.4005 3.0032 4.9703 4.3026 7.9736 2.9021l10.8757-5.0714c3.0032-1.4004 4.3026-4.9703 2.9021-7.9736-1.4004-3.0032-4.9703-4.3025-7.9735-2.9021z"/><path d="m24.7494 30.2858-4.4664 2.0817c-2.0022.9337-2.8684 3.3136-1.9348 5.3157.9337 2.0022 3.3136 2.8684 5.3158 1.9348l4.4664-2.0818zm.9674-2.6579 5.0714 10.8757-6.279 2.927c-3.0033 1.4005-6.5731.1011-7.9736-2.9021-1.4004-3.0033-.1011-6.5731 2.9022-7.9736z"/></g></svg>

<svg width="48" height="48" viewBox="0 0 48 48" fill="none" xmlns="http://www.w3.org/2000/svg">
<path d="M37.0837 15.7351C37.6219 15.8589 38.1586 15.5229 38.2823 14.9846C38.4061 14.4464 38.07 13.9097 37.5318 13.786L30.9161 12.2651C30.3779 12.1413 29.8413 12.4773 29.7175 13.0156C29.5938 13.5538 29.9298 14.0905 30.468 14.2142L37.0837 15.7351Z" fill="#333333"/>
<path fill-rule="evenodd" clip-rule="evenodd" d="M34 22C38.4183 22 42 18.4183 42 14C42 9.58172 38.4183 6 34 6C29.5817 6 26 9.58172 26 14C26 18.4183 29.5817 22 34 22ZM34 20C37.3137 20 40 17.3137 40 14C40 10.6863 37.3137 8 34 8C30.6863 8 28 10.6863 28 14C28 17.3137 30.6863 20 34 20Z" fill="#333333"/>
<path fill-rule="evenodd" clip-rule="evenodd" d="M16.7782 9.24516C16.1307 7.71335 13.9653 7.55884 13.0955 8.98238L6.29281 20.1148C5.50809 21.399 6.38547 23.0385 7.9159 23.1477L19.7823 23.9944C21.3127 24.1036 22.4261 22.6062 21.842 21.2243L16.7782 9.24516ZM14.8106 10.013C14.8091 10.0148 14.8061 10.0186 14.8021 10.0252L8.01 21.1404L8.01156 21.1415C8.01351 21.1428 8.01659 21.1445 8.02192 21.1463C8.02695 21.1481 8.03827 21.1513 8.05824 21.1527L19.9246 21.9994C19.9446 22.0009 19.9568 21.9993 19.963 21.9981C19.9696 21.9969 19.9742 21.9952 19.9779 21.9934C19.9827 21.9912 19.9875 21.988 19.9918 21.9841L14.9361 10.0239C14.9342 10.0194 14.9326 10.0164 14.9316 10.0145C14.9257 10.0111 14.9077 10.0026 14.8779 10.0004C14.8449 9.99809 14.8228 10.0054 14.8156 10.0089L14.8132 10.0103L14.8121 10.0113L14.8106 10.013Z" fill="#333333"/>
<path fill-rule="evenodd" clip-rule="evenodd" d="M35.3849 36.3592C38.3881 34.9588 39.6875 31.3889 38.287 28.3856C36.8866 25.3824 33.3167 24.0831 30.3135 25.4835L19.4378 30.5549C16.4345 31.9554 15.1352 35.5252 16.5356 38.5285C17.9361 41.5317 21.5059 42.8311 24.5092 41.4306L35.3849 36.3592ZM20.283 32.3675C18.2808 33.3012 17.4146 35.6811 18.3482 37.6832C19.2819 39.6854 21.6618 40.5516 23.664 39.618L28.13 37.5354L24.7494 30.2858L20.283 32.3675ZM29.9426 36.6902L26.5617 29.4397L31.1587 27.2961C33.1609 26.3625 35.5408 27.2287 36.4744 29.2309C37.408 31.233 36.5418 33.613 34.5396 34.5466L29.9426 36.6902Z" fill="#333333"/>
</svg>
